X: 18820
T: Il Est Né, Le Divin Enfant
R: barndance
M: 4/4
K: Gmajor
D2 G2 G2 BG|D2 G2 G4|G2 GA B2 cB|A2 G2 AF D2|
D2 G2 G2 BG|D2 G2 G4|G2 A2 B2 cB|A2 d2 G4||
B2 c2 d2 cB|c2 e2 d4|B2 c2 d2 ed|c2 B2 B2 A2|
B2 c2 d2 cB|c2 e2 d4|B2 c2 d2 cB|A2 d2 G4||

